storage/app/icons/phosphoricons/regular/frame-corners.svg

<svg xmlns="http://www.w3.org/2000/svg" fill="currentColor" viewBox="0 0 256 256"><path d="M200 80v32a8 8 0 0 1-16 0V88h-24a8 8 0 0 1 0-16h32a8 8 0 0 1 8 8M96 168H72v-24a8 8 0 0 0-16 0v32a8 8 0 0 0 8 8h32a8 8 0 0 0 0-16M232 56v144a16 16 0 0 1-16 16H40a16 16 0 0 1-16-16V56a16 16 0 0 1 16-16h176a16 16 0 0 1 16 16m-16 144V56H40v144z"/></svg>

<svg xmlns="http://www.w3.org/2000/svg" viewBox="0 0 256 256" fill="currentColor"><path d="M200,80v32a8,8,0,0,1-16,0V88H160a8,8,0,0,1,0-16h32A8,8,0,0,1,200,80ZM96,168H72V144a8,8,0,0,0-16,0v32a8,8,0,0,0,8,8H96a8,8,0,0,0,0-16ZM232,56V200a16,16,0,0,1-16,16H40a16,16,0,0,1-16-16V56A16,16,0,0,1,40,40H216A16,16,0,0,1,232,56ZM216,200V56H40V200H216Z"/></svg>
